usr/share/icons/biglinux-icons-material/24/actions/composite-track-preview.svg

<svg xmlns="http://www.w3.org/2000/svg" viewBox="0 0 24 24"><defs id="defs3051"><style id="current-color-scheme" type="text/css">.ColorScheme-Text{color:#dedede}</style></defs><path d="M3 3v16h16V3H3Zm1 1h14v14H4V4Z" class="ColorScheme-Text" style="fill:currentColor;fill-opacity:1;stroke:none" transform="translate(1 1)"/><path d="M11 5v6h6V5h-6zm0 6H5v6h6v-6z" class="ColorScheme-Text" style="fill:currentColor;fill-opacity:.6;stroke:none" transform="translate(1 1)"/></svg>

<svg xmlns="http://www.w3.org/2000/svg" viewBox="0 0 24 24">
  <defs id="defs3051">
    <style type="text/css" id="current-color-scheme">
      .ColorScheme-Text {
        color:#363636;
      }
      </style>
  </defs><g transform="translate(1,1)">
 <path 
    style="fill:currentColor;fill-opacity:1;stroke:none" 
    d="M 3,3 3,3.5 3,19 19,19 19,3 3,3 Z M 4,4 18,4 18,18 4,18 4,4 Z"
    class="ColorScheme-Text"
    />  
 <path 
    style="fill:currentColor;fill-opacity:0.6;stroke:none" 
    d="M 11 5 L 11 11 L 17 11 L 17 5 L 11 5 z M 11 11 L 5 11 L 5 17 L 11 17 L 11 11 z "
    class="ColorScheme-Text"
    />
</g></svg>
